X: 10791
M: 2/4
L: 1/16
K: Bb
P: The King shall enjoy his ain again.
d2 |\
cd |\
c>BAB c2d2 | c>BAB c2d2 | c2f2 =efge | f2F2F2 DE |\
P: My Love she's but a Lassie Yet.
de |\
f2fd e2ec | d2B2 Bcde | f2fd efed | c2F2F2 de |\
f2fd e2ec | edcB c2(dc) | BAGF GBAc | BABc "^D.C."B2 |]


